X:1
T:20 Mélodies, Op.21
T:Absence
T:à Monsieur ALEXANDRE de GOLDSCHMIDT 
T:20 Mélodies, Op.21
T:13. Absence
T:Georges Bizet
T:Théophile Gautier
T: 
T:OpenScore (CC0)
T:OpenScore (CC0)
T:OpenScore (CC0)
T:OpenScore (CC0)
T:OpenScore (CC0)
T:OpenScore (CC0)
T:OpenScore (CC0)
T:OpenScore (CC0)
T:OpenScore (CC0)
C:Georges Bizet
Z:Théophile Gautier
Z:OpenScore (CC0)
%%score ( 1 2 ) { 3 | ( 4 5 ) }
L:1/8
Q:1/4=96
M:4/4
K:Eb
V:1 treble nm="Chant\nVoice"
V:2 treble 
V:3 bass nm="Piano"
V:4 bass 
V:5 bass 
V:1
"^Andante moderato" z8 | z8 | z8 | z8 | z!mf!"^espressivo assai"!>(! f e d c B =A3/2!>)! _A/ | %5
w: ||||Re- viens, re- viens, ma bien- ai-|
 A2 G2 z _G d c | c2 F4 =G A | G2- G z z4 | z f e d c =B ^A B | d2 c z c =B c ^c | %10
w: \- mé- e! Comme  u- ne|fleur loin du so-|leil, _|La fleur de ma vie est fer-|mé- e, Loin de ton sou-|
 (d2 (e4){fe)} d3/2 =c/ | _B2- B z z4 | z2!<(! c2- (c!<)!^c)!>(! (d!>)!=A) | (=c2 B2) z4 | %14
w: ri- * re ver-|\- meil! _|Ah! _ _ re- *|\- viens, _|
 z!<(! _A!<)!"^rit."[Q:1/4=90]"^T" f[Q:1/4=83]"^T"!>(! e[Q:1/4=76]"^T" d[Q:1/4=70]"^T" c!>)! B3/2 A/ | %15
w: re- viens, re- viens, ma bien- ai-|
[Q:1/4=96]"^a Tempo"!pp! G2- G z A3"^cresc." F | B2- B z c3 A |!f!!<(! _d8-!<)! | %18
w: mé- e! Ah! Re-|\- viens, _ Ah! Re-|viens!|
 _d z!f![Q:1/4=92]"_T"!>(! f2"^rit."[Q:1/4=85]"_T" e2!>)![Q:1/4=78]"_T" d2 | %19
w: _ En- tre nos|
[Q:1/4=96]"^a Tempo"!p! (c3 G) A2 A F | %20
w: cœurs _ tant de dis-|
[Q:1/4=98]"^T""^animez peu à peu" c4-[Q:1/4=100]"^T" c z!<(! c ^c | %21
w: tan- ce! Tant d'es-|
[Q:1/4=102]"^T""^(animez  peu  à  peu)" d2 d!<)! =A[Q:1/4=104]"^T" B3 G | %22
w: \- pace en- tre nos bai-|
[Q:1/4=106]"^T" d4[Q:1/4=108]"^T" z!<(! d d3/2!<)! d/ | e2 z =B c3 _A | %24
w: sers! Ô sort a-|\- mer! Ô dure ab-|
 e3- e z[Q:1/4=105]"^T""^crescendo    e     rit." !>!e2[Q:1/4=102]"^T" !>!e- | %25
w: sen- ce! Ô sort|
 e !>!e2 !>!e z[Q:1/4=93]"^T" e{fe} =d e[Q:1/4=98]"^T" | %26
w: _ a- mer! Ô dure  ab-|
!f!"^allargando" (f[Q:1/4=89]"^T"e=Bd) c/ z/[Q:1/4=82]"^T" G"^dim." A F[Q:1/4=85]"^T" | %27
w: \- sen- * * * ce! Ô grands dé-|
!p! _B4-"^à volonté" (3(B=A) _A (3(G{/B}A3/2) !fermata!F/ |[Q:1/4=96]"^a Tempo" E4- E z z2 | z8 | %30
w: sirs _ _ i- na _ pai-|\- sés. _||
 z8 | z8 | z!mf!!>(! f e d c B =A _A!>)! |!p! A2 G2 z _G d z/ c/ | c2 z F F F =G{/B} A | %35
w: ||Au pa- ys qui me prend ma|bel- le, Hé- las! hé-|\- las! Si je pou- vais, al-|
 G2- G z z4 | z f e d c =B ^A B | d2 c2- c/ z/ =B c ^c | d2 (e4{fe)} d3/2 =c/ | _B2- B z z4 | %40
w: ler. _|Et si mon corps a- vait une|ai- le _ Com- me mon|â- me pour vo-|ler _|
 z!p! c!<(! c2- (c^c!<)!d) z/ =A/ |!>(! (=c2!>)! B2) z4 | %42
w: Hé- las! _ _ _ hé-|las! _|
 z!<(! _A!<)!"^rit."[Q:1/4=85]"^T" f[Q:1/4=80]"^T"!>(! e[Q:1/4=75]"^T" d[Q:1/4=70]"^T" c B3/2!>)! A/ | %43
w: Au pa- ys qui me  prend ma|
[Q:1/4=90]"^a Tempo"!pp! G2-[Q:1/4=93]"^T" G z[Q:1/4=96]"^T""^crescendo" A2 A3/2 F/ | %44
w: bel- le, Si je pou-|
 B2 z B c c c3/2 A/ |!<(! _d8-!<)! | %46
w: vais, si je pou- vais al-|\- ler;|
!f! (_d2"^rit."[Q:1/4=85]"^T" f-)f/ z/[Q:1/4=70]"^T"!>(! e3!>)! d | %47
w: _ _ _ Par- des-|
!p![Q:1/4=96]"^a Tempo" c3 G A2 A F | %48
w: sus nos ver- tes col-|
[Q:1/4=98]"^T""^animez   peu   à   peu" c4- c z[Q:1/4=101]"^T"!<(! c ^c[Q:1/4=100]"^T" | %49
w: \- li- nes, Les mon-|
[Q:1/4=102]"^T" d2!<)![Q:1/4=103]"^T" d =A[Q:1/4=104]"^T" B3 G[Q:1/4=105]"^T" | %50
w: ta- gnes au front d'a-|
[Q:1/4=106]"^T" d4 z d[Q:1/4=108]"^T" d3/2 d/[Q:1/4=107]"^T" | e3 =B c3 _A[Q:1/4=109]"^T" | %52
w: \- zur. Les champs ra-|yés et les ra-|
 e3- e z[Q:1/4=105]"^T""^crescendo  e  rit." !>!e2 !>!e- | %53
w: \- vi- nes, J'i- rais,|
[Q:1/4=101]"^T" e !>!e2[Q:1/4=97]"^T" !>!e !>!e e[Q:1/4=93]"^T"{fe} =d e | %54
w: _ oui j'i- rais d’un vol ra-|
!f!"^allargando"[Q:1/4=88]"^T" (fe[Q:1/4=85]"^T"=Bd)[Q:1/4=82]"^T" c/ z/ G"^dim." A F | %55
w: pi- * * * de, J’i- rais d’un|
!p![Q:1/4=78]"^T" _B4-"^à volonté" (3(B=A) _A (3(G{/B}A3/2) !fermata!F/ | %56
w: vol _ _ ra- pi- de et|
[Q:1/4=96]"^a Tempo" E4- E z z2 | z8 | z8 | z8 | z!mf!!>(! f e d c B =A3/2!>)! _A/ | %61
w: sûr. _||||Le corps ne suit pas la pen-|
!p! A2 G2 z _G d z/ c/ | c4 F z =G A | G2- G z z4 | z f e d c =B ^A B | d2 c z c =B c ^c | %66
w: sé- e! Pour moi, mon|â- me, va tout|droit, _|Comme u- ne co- lom- be bles-|sé- e, T'a- battre au re-|
 (d2 (e4){fe} d3/2) =c/ | _B2- B z z4 | z2!<(! c2- (c^c)!<)! d z/!>(! =A/ | =c2!>)! B2 z4 | %70
w: \- bord _ de son|toit. _|Et _ _ dis, mon|â- me,|
 z!<(! _A!<)!"^rit."[Q:1/4=92]"^T" f[Q:1/4=85]"^T"!>(! e[Q:1/4=78]"^T" d c!>)! B3/2 A/ | %71
w: Et dis, mon âme, à cet- te|
[Q:1/4=96]"^a Tempo" A2 G z A3"^cresc." F | B3 B c2 c A |!<(! _d8-!<)! | %74
w: bel- le: «Tu sais|bien qu'il comp- te les|jours!|
 _d z!f![Q:1/4=90]"^T"!>(! f2"^rit."[Q:1/4=83]"^T" e2[Q:1/4=75]"^T" d2!>)! | %75
w: _ Ô ma co-|
[Q:1/4=96]"^a Tempo" c- c z!p! G A3 F | %76
w: \- lom- be! à ti- re|
[Q:1/4=98]"^T""^animez  peu  à  peu" c3- c[Q:1/4=101]"^T" z!<(! c[Q:1/4=102]"^T" c!<)! ^c[Q:1/4=100]"^T" | %77
w: d'ai- le, Re- tourne au|
[Q:1/4=103]"^T" d3 =A[Q:1/4=105]"^T" B3 G[Q:1/4=104]"^T"[Q:1/4=106]"^T" | %78
w: nid de nos a-|
[Q:1/4=107]"^T" d4- d z[Q:1/4=109]"^T"!<(! d d!<)![Q:1/4=108]"^T" | %79
w: mours. _ Tu sais|
[Q:1/4=110]"^T""^(animez)" e3 =B c2 c _A | %80
w: bien qu'il  comp- te les|
 e4 z[Q:1/4=80]"^T""^crescendo    e    rit." !>!e2 !>!e- | %81
w: jours, Ô ma|
[Q:1/4=80]"^T" e e2 e- e/ z/[Q:1/4=80]"^T" e{fe} =d e[Q:1/4=80]"^T" | %82
w: _ co- lombe, * à ti- re|
!f!"^allargando"[Q:1/4=88]"^T" (fe[Q:1/4=84]"^T"=Bd)[Q:1/4=80]"^T" c/ z/ G A!f! F | %83
w: d'ai- * * * le, Re- tourne au|
"^à volonté" B4- B =B[Q:1/4=70]"^T" c !fermata!d | %84
w: nid _ de nos a-|
[Q:1/4=96]"^a Tempo"[Q:1/4=96]"_a Tempo""^dim." e8-[Q:1/4=92]"^T"[Q:1/4=88]"^T"[Q:1/4=85]"^T" | %85
w: \- mours!»|
[Q:1/4=81]"^T" e2[Q:1/4=77]"^T" z2[Q:1/4=72]"^T" z4[Q:1/4=65]"^T" | !fermata!z8 |] %87
w: _||
V:2
 x8 | x8 | x8 | x8 | x8 | x8 | x8 | x8 | x8 | x8 | x8 | x8 | x8 | x8 | x8 | x8 | x8 | x8 | x8 | %19
 x8 | x8 | x8 | x8 | x8 | x8 | x8 | x8 | x8 | x8 | x8 | x8 | x8 | x8 | x8 | x8 | x8 | x8 | x8 | %38
 x8 | x8 | x8 | x8 | x8 | x8 | x8 | x8 | x8 | x8 | x8 | x8 | x8 | x8 | x8 | x8 | x8 | x8 | x8 | %57
 x8 | x8 | x8 | x8 | x8 | x8 | x8 | x8 | x8 | x8 | x8 | x8 | x8 | x8 | x8 | x8 | x8 | x8 | x8 | %76
 x8 | x8 | x8 | x8 | x8 | x8 | (=agfe) d/ x/ c A F | x8 | x8 | x8 | x8 |] %87
V:3
!mf! z2"_molto espressivo e sostenuto assai" (E,2 G,2 C2 | C4 B,A,G,F, | %2
 F,2!<(!{E,F,} E,2 D,2!<)! E,2 |!f! !>!G4-!>(! GF=E!>)!_E | %4
"_sempre senza rigore"!pp! (3D)[F,_A,D][F,A,D] (3[F,A,D][F,A,D][F,A,D] (3[F,A,D][F,A,D][F,A,D] (3[F,A,D][F,A,D][F,A,D] | %5
 (3z [E,A,E][E,A,E] (3[E,G,E][E,G,E][E,G,E] (3z [_G,CE][G,CE] (3[G,CE][G,CE][G,CE] | %6
 (3z [F,_A,CE][F,A,CE] (3[F,A,CE][F,A,CE][F,A,CE] (3z [F,A,B,D][F,A,B,D] (3[F,A,B,D][F,A,B,D][F,A,B,D] | %7
 (3z [G,B,E][G,B,E] (3[G,B,E][G,B,E][G,B,E] (3[G,B,E][G,B,E][G,B,E] (3[G,B,E][G,B,E][G,B,E] | %8
!pp! (3z [F,A,D][F,A,D] (3[F,A,D][F,A,D][F,A,D] (3z [F,A,C][F,A,C] (3z [F,A,=B,][F,A,B,] | %9
 (3z [F,A,=B,D][F,A,B,D] (3[G,C][G,C][G,C] (3z [_G,_B,C][G,B,C] (3[G,B,C][G,B,C][G,B,^C] | %10
 (3z [B,D][B,D] (3[_G,B,_E][G,B,E][G,B,E] (3z [E,=A,][E,A,] (3[E,A,][E,A,][E,A,] | %11
 (3z"_espress." [D,B,][D,B,] (3[D,B,][D,B,][D,B,] (3z [B,_D][B,D] (3[B,D][B,D][B,D] | %12
 (3z [A,C][A,C] (3[A,C][A,C][A,C] (3z [A,_D][A,D] (3z [=A,=D][A,D] | %13
 (3z [B,E][B,E] (3[B,E][B,E][B,E] (3z!>(! [_D=E][DE] (3[DE][DE][DE] | %14
 (3z [A,CF]!>)![A,CF]"_suivez" (3[A,CF][A,CF][A,CF]!pp! [A,D]2- [A,D] z | %15
[K:treble]"^a Tempo"{/G,} (3(GFE (3DCB,"_crescendo" (3CDE (3FGA | (3BAG (3FED (3EFG (3ABc | %17
!f! (3_d!<(!BG (3F_DF (3GBd (3fgb!<)! | _d')"_suivez" z z2 z4 | %19
!p!"^a Tempo" (3z [G,B,C=E][G,B,CE] (3[G,B,CE][G,B,CE][G,B,CE] (3[A,CF][A,CF][A,CF] (3[A,CF][A,CF][A,CF] | %20
 (3z [G,B,C=E][G,B,CE] (3[G,B,CE][G,B,CE][G,B,CE] (3[A,CF][A,CF][A,CF] [A,CF] z | %21
!p!"_(animez  peu  à  peu)" (3z [=A,CD^F][A,CDF] (3[A,CDF][A,CDF][A,CDF] (3[B,DG][B,DG][B,DG] (3[B,DG][B,DG][B,DG] | %22
 (3z [=A,CD^F][A,CDF] (3[A,CDF][A,CDF][A,CDF] (3[B,DG][B,DG][B,DG] [B,DG] z | %23
!mf! (3z [_DEG][DEG] (3[DEG][DEG][DEG] (3[CE_A][CEA][CEA] (3[CEA][CEA][CEA] | %24
 (3z [G,EG][G,EG] (3z [G,EG][G,EG] (3z"_crescendo    e     rit." [A,EA][A,EA] (3z [=A,E=A][A,EA] | %25
 (3z [B,EB][B,EB] (3z [=B,E=B][B,EB] (3z [CEc][CEc] [EG_d]-[EGd]/ z/ | %26
[K:bass]!f! (3z"_allargando"!>(! [F,CE][F,CE] (3[F,CE][F,CE]!>)![F,CE] [F,CE] z z2 | %27
!p! (3z!>(! [=E,G,B,^C][E,G,B,C] (3[E,G,B,C][E,G,B,C]!>)![E,G,B,C] [F,A,B,=D]2- [F,A,B,D] !fermata!z | %28
"^a Tempo" z2!mf! (E,2 G,2 C2 | C4 B,A,G,F, | F,2!<(!{E,F,} E,2 D,2!<)! E,2 | %31
!f! !>!G4-!>(! GF=E!>)!_E | %32
"_sempre senza rigore"!pp! (3D)[F,_A,D][F,A,D] (3[F,A,D][F,A,D][F,A,D] (3[F,A,D][F,A,D][F,A,D] (3[F,A,D][F,A,D][F,A,D] | %33
 (3z [E,A,E][E,A,E] (3[E,G,E][E,G,E][E,G,E] (3z [_G,CE][G,CE] (3[G,CE][G,CE][G,CE] | %34
 (3z [F,_A,CE][F,A,CE] (3[F,A,CE][F,A,CE][F,A,CE] (3z [F,A,B,D][F,A,B,D] (3[F,A,B,D][F,A,B,D][F,A,B,D] | %35
 (3z [G,B,E][G,B,E] (3[G,B,E][G,B,E][G,B,E] (3[G,B,E][G,B,E][G,B,E] (3[G,B,E][G,B,E][G,B,E] | %36
!pp! (3z [F,A,D][F,A,D] (3[F,A,D][F,A,D][F,A,D] (3z [F,A,C][F,A,C] (3z [F,A,=B,][F,A,B,] | %37
 (3z [F,A,=B,D][F,A,B,D] (3[G,C][G,C][G,C] (3z [_G,_B,C][G,B,C] (3[G,B,C][G,B,C][G,B,^C] | %38
 (3z [B,D][B,D] (3[_G,B,_E][G,B,E][G,B,E] (3z [E,=A,][E,A,] (3[E,A,][E,A,][E,A,] | %39
 (3z"_espress."!mp! [D,B,][D,B,] (3[D,B,][D,B,][D,B,] (3z [B,_D][B,D] (3[B,D][B,D][B,D] | %40
 (3z [A,C][A,C] (3[A,C][A,C][A,C] (3z [A,_D][A,D] (3z [=A,=D][A,D] | %41
 (3z [B,E][B,E] (3[B,E][B,E][B,E] (3z!>(! [_D=E][DE] (3[DE][DE]!>)![DE] | %42
 (3z [A,CF][A,CF]"_suivez" (3[A,CF][A,CF][A,CF]!pp! [A,D]2- [A,D] z | %43
[K:treble]"^a Tempo"{/G,} (3(GFE (3DCB, (3CDE (3FGA | (3BAG (3FED (3EFG (3ABc | %45
!f!!<(! (3_dBG (3F_DF (3GBd (3fgb!<)! | _d')"_suivez" z z2 z4 | %47
!p!"^a Tempo" (3z [G,B,C=E][G,B,CE] (3[G,B,CE][G,B,CE]!tenuto![G,B,CE] (3[A,CF][A,CF][A,CF] (3[A,CF][A,CF][A,CF] | %48
 (3z [G,B,C=E][G,B,CE] (3[G,B,CE][G,B,CE]!tenuto![G,B,CE] (3[A,CF][A,CF][A,CF] [A,CF] z | %49
!p! (3z [=A,CD^F][A,CDF] (3[A,CDF][A,CDF][A,CDF] (3[B,DG][B,DG][B,DG] (3[B,DG][B,DG][B,DG] | %50
!p! (3z [=A,CD^F][A,CDF] (3[A,CDF][A,CDF][A,CDF] (3[B,DG][B,DG][B,DG]!<(! [B,DG] z!<)! | %51
!mf! (3z [_DEG][DEG] (3[DEG][DEG][DEG] (3[CE_A][CEA][CEA] (3[CEA][CEA][CEA] | %52
 (3z [G,EG][G,EG] (3z [G,EG][G,EG] (3z"_crescendo  e  rit." [A,EA][A,EA] (3z [=A,E=A][A,EA] | %53
 (3z [B,EB][B,EB] (3z [=B,E=B][B,EB] (3z [CEc][CEc] [EG_d]-[EGd]/ z/ | %54
[K:bass]!f! (3z"_allargando"!>(! [F,CE][F,CE] (3[F,CE][F,CE][F,CE]!>)! [F,CE] z z2 | %55
!p! (3z!>(! [=E,G,B,^C][E,G,B,C] (3[E,G,B,C][E,G,B,C]!>)![E,G,B,C] [F,A,B,=D]2- [F,A,B,D] !fermata!z | %56
"^a Tempo" z2!mf! (E,2 G,2 C2 | C4 B,A,G,F, | F,2!<(!{E,F,} E,2 D,2!<)! E,2!f! | %59
 !>!G4-!>(! GF=E!>)!_E | %60
"_sempre senza rigore" (3D)[F,_A,D][F,A,D] (3[F,A,D][F,A,D][F,A,D] (3[F,A,D][F,A,D][F,A,D] (3[F,A,D][F,A,D][F,A,D] | %61
 (3z [E,A,E][E,A,E] (3[E,G,E][E,G,E][E,G,E] (3z [_G,CE][G,CE] (3[G,CE][G,CE][G,CE] | %62
 (3z [F,_A,CE][F,A,CE] (3[F,A,CE][F,A,CE][F,A,CE] (3z [F,A,B,D][F,A,B,D] (3[F,A,B,D][F,A,B,D][F,A,B,D] | %63
 (3z [G,B,E][G,B,E] (3[G,B,E][G,B,E][G,B,E] (3[G,B,E][G,B,E][G,B,E] (3[G,B,E][G,B,E][G,B,E] | %64
!pp! (3z [F,A,D][F,A,D] (3[F,A,D][F,A,D][F,A,D] (3z [F,A,C][F,A,C] (3z [F,A,=B,][F,A,B,] | %65
 (3z [F,A,=B,D][F,A,B,D] (3[G,C][G,C][G,C] (3z [_G,_B,C][G,B,C] (3[G,B,C][G,B,C][G,B,^C] | %66
 (3z [B,D][B,D] (3[_G,B,_E][G,B,E][G,B,E] (3z [E,=A,][E,A,] (3[E,A,][E,A,][E,A,] | %67
 (3z"_espress." [D,B,][D,B,] (3[D,B,][D,B,][D,B,] (3z [B,_D][B,D] (3[B,D][B,D][B,D] | %68
 (3z [A,C][A,C] (3[A,C][A,C][A,C] (3z [A,_D][A,D] (3z [=A,=D][A,D] | %69
 (3z [B,E][B,E] (3[B,E][B,E][B,E] (3z [_D=E][DE] (3[DE][DE][DE] | %70
 (3z [A,CF][A,CF] (3[A,CF][A,CF][A,CF]!pp!"_suivez" [A,D]2- [A,D] z | %71
[K:treble]!pp!"^a Tempo"{/G,} (3(GFE (3DCB,"_crescendo" (3CDE (3FGA | (3BAG (3FED (3EFG (3ABc | %73
!f! (3_dBG!<(! (3F_DF (3GBd (3fgb!<)! | _d')"_suivez" z z2 z4 | %75
!p!"^a Tempo" (3z [G,B,C=E][G,B,CE] (3[G,B,CE][G,B,CE][G,B,CE] (3[A,CF][A,CF][A,CF] (3[A,CF][A,CF][A,CF] | %76
 (3z [G,B,C=E][G,B,CE] (3[G,B,CE][G,B,CE][G,B,CE] (3[A,CF][A,CF][A,CF] [A,CF] z | %77
!p! (3z [=A,CD^F][A,CDF] (3[A,CDF][A,CDF][A,CDF] (3[B,DG][B,DG][B,DG] (3[B,DG][B,DG][B,DG] | %78
 (3z [=A,CD^F][A,CDF] (3[A,CDF][A,CDF][A,CDF] (3[B,DG][B,DG][B,DG] [B,DG] z | %79
!mf!"_(animez)" (3z [_DEG][DEG] (3[DEG][DEG][DEG] (3[CEA][CEA][CEA] (3[CEA][CEA][CEA] | %80
 (3z [G,EG][G,EG] (3z [G,EG][G,EG] (3z"_crescendo       e     rit." [A,EA][A,EA] (3z [=A,E=A][A,EA] | %81
 (3z [B,EB][B,EB] (3z [=B,E=B][B,EB] (3z [CEc][CEc] [EG_d]-[EGd]/ z/ | %82
[K:bass]!f! (3z"_allargando"!>(! [F,CE][F,CE] (3[F,CE][F,CE][F,CE]!>)! [F,CE] z z2 | %83
!p! (3z!>(! [=E,G,B,^C][E,G,B,C] (3[E,G,B,C][E,G,B,C][E,G,B,C]!>)! [F,A,B,=D]2- [F,A,B,D] !fermata!z | %84
[K:treble]!p! (3z [G,EG][G,EG]"_dim.  e  rall.  molto" (3[G,EG][G,EG][G,EG] (3[G,EG][G,EG][G,EG] (3[G,EG][G,EG][G,EG] | %85
 (3z [G,EG][G,EG] (3[G,EG][G,EG][G,EG] (3[G,EG][G,EG][G,EG] (3[G,EG][G,EG][G,EG] | %86
!pp! !fermata![G,EG]8 |] %87
V:4
!p! (3z [G,,B,,][G,,B,,] (3[G,,B,,][G,,B,,][G,,B,,] (3[G,,C,][G,,C,][G,,C,] (3[G,,C,][G,,C,][G,,C,] | %1
 (3z [F,,C,][F,,C,] (3[F,,C,][F,,C,][F,,C,] (3[F,,B,,][F,,B,,][F,,B,,] (3[F,,B,,][F,,B,,][F,,B,,] | %2
 (3z [G,,C,][G,,C,] (3[G,,C,][G,,C,][G,,C,] (3[G,,C,][G,,C,][G,,C,] (3[G,,C,][G,,C,][G,,C,] | %3
!ped! (3F,,,[F,,=A,,E,][F,,A,,E,] (3[F,,A,,E,][F,,A,,E,][F,,A,,E,] (3[F,,A,,E,][F,,A,,E,][F,,A,,E,] (3[F,,A,,E,][F,,A,,E,][F,,A,,E,]!ped-up! | %4
{/B,,,} (B,,6 =B,,2 | C,4 =A,,4 | B,,4 B,,,4 | %7
 (3E,,)(G,,,!<(!A,,, (3B,,,C,,D,, (3E,,F,,G,, (3A,,=A,,B,,!<)! | =B,,4 C,2 D,2 | E,4 =E,4 | %10
 F,4 F,,4 | B,,,)!<(! (B,,=A,,!<)!B,,-!>(! !^!_A,3!>)! =E,) | (=G,2!p! F,4 ^F,2 | %13
 G,)!<(! (B,,=A,,!<)!B,,- CB,_A,G, | G,2 F,2 B,,2-) B,, z |!pp! ([E,,B,,E,]4 [F,,B,,D,]4 | %16
 [G,,B,,E,]4 [A,,C,A,]4 |!ped! [B,,_D,F,G,]8-) | [B,,_D,F,G,]!ped-up! z z2 z4 |{/C,,} C,8 | %20
"^animez peu à peu"{/C,,} C,6!<(! (C,^C,!<)! |{/D,,)} D,8 |{/D,,} D,6!<(! (D,2!<)! |{/E,,)} E,8 | %24
{/E,,} E,2 E,6- | E,2 E,2 E,2 E,-E,/ z/ | [_A,,,_A,,]4- [A,,,A,,] z z2 | %27
 B,,4- B,,2- B,, !fermata!z | %28
!p! (3z [G,,B,,][G,,B,,] (3[G,,B,,][G,,B,,][G,,B,,] (3[G,,=C,][G,,C,][G,,C,] (3[G,,C,][G,,C,][G,,C,] | %29
 (3z [F,,C,][F,,C,] (3[F,,C,][F,,C,][F,,C,] (3[F,,B,,][F,,B,,][F,,B,,] (3[F,,B,,][F,,B,,][F,,B,,] | %30
 (3z [G,,C,][G,,C,] (3[G,,C,][G,,C,][G,,C,] (3[G,,C,][G,,C,][G,,C,] (3[G,,C,][G,,C,][G,,C,] | %31
!ped! (3F,,,[F,,=A,,E,][F,,A,,E,] (3[F,,A,,E,][F,,A,,E,][F,,A,,E,] (3[F,,A,,E,][F,,A,,E,][F,,A,,E,] (3[F,,A,,E,][F,,A,,E,][F,,A,,E,]!ped-up! | %32
{/B,,,} (B,,6 =B,,2 | C,4 =A,,4 | B,,4 B,,,4 | %35
 (3E,,)!<(!(G,,,A,,, (3B,,,C,,D,, (3E,,F,,G,, (3A,,=A,,B,,!<)! | =B,,4 C,2 D,2 | E,4 =E,4 | %38
 F,4 F,,4 | B,,,)!<(! (B,,=A,,!<)!B,,-!>(! !^!_A,3!>)! =E, | =G,2!p! F,4 ^F,2 | %41
 G,)!<(! (B,,=A,,!<)!B,,- CB,_A,G, |!>(! G,2!>)! F,2 B,,2-) B,, z | %43
!pp! ([E,,B,,E,]4"^crescendo" [F,,B,,D,]4 | [G,,B,,E,]4 [A,,C,A,]4 |!ped! [B,,_D,F,G,]8-) | %46
 [B,,_D,F,G,]!ped-up! z z2 z4 |{/C,,} C,8 |{/C,,} C,6!<(! (C,^C,!<)! |{/D,,} D,8) | %50
"^(animez   peu   à   peu)"{/D,,} D,6 (D,2 |{/E,,} E,8) |{/E,,} E,2 E,6- | E,2 E,2 E,2 E,-E,/ z/ | %54
 [_A,,,_A,,]4- [A,,,A,,] z z2 | B,,4- B,,2- B,, !fermata!z | %56
 (3z [G,,B,,][G,,B,,] (3[G,,B,,][G,,B,,][G,,B,,] (3[G,,=C,][G,,C,][G,,C,] (3[G,,C,][G,,C,][G,,C,] | %57
 (3z [F,,C,][F,,C,] (3[F,,C,][F,,C,][F,,C,] (3[F,,B,,][F,,B,,][F,,B,,] (3[F,,B,,][F,,B,,][F,,B,,] | %58
 (3z [G,,C,][G,,C,] (3[G,,C,][G,,C,][G,,C,] (3[G,,C,][G,,C,][G,,C,] (3[G,,C,][G,,C,][G,,C,] | %59
!ped! (3F,,,[F,,=A,,E,][F,,A,,E,] (3[F,,A,,E,][F,,A,,E,][F,,A,,E,] (3[F,,A,,E,][F,,A,,E,][F,,A,,E,] (3[F,,A,,E,][F,,A,,E,][F,,A,,E,]!ped-up! | %60
!pp!{/B,,,} (B,,6 =B,,2 | C,4 =A,,4 | B,,4 B,,,4 | %63
 (3E,,)!<(!(G,,,A,,, (3B,,,C,,D,, (3E,,F,,G,, (3A,,=A,,!<)!B,, | =B,,4 C,2 D,2 | E,4 =E,4 | %66
 F,4 F,,4 | B,,,)!<(! (B,,=A,,!<)!B,,-!>(! !^!_A,3!>)! =E, | =G,2!p! F,4 ^F,2 | %69
 G,)!<(! (B,,=A,,!<)!B,,- !>!CB,_A,G, |!>(! G,2!>)! F,2 B,,2-) B,, z | ([E,,B,,E,]4 [F,,B,,D,]4 | %72
 [G,,B,,E,]4 [A,,C,A,]4 |!ped! [B,,_D,F,G,]8-) | [B,,_D,F,G,]!ped-up! z z2 z4 |{/C,,} C,8 | %76
"^animez  peu  à  peu"{/C,,} C,6!<(! (C,^C,!<)! |{/D,,)} D,8 |{/D,,} D,6!<(! (D,2!<)! | %79
{/E,,)} E,8 |{/E,,} E,2 E,6- | E,2 E,2 E,2 E,-E,/ z/ | [_A,,,_A,,]4- [A,,,A,,] z z2 | %83
 B,,4- B,,2- B,, !fermata!z |{/E,,} (E,2 C,2 B,,2 G,,2 | E,,2 C,,2 B,,,2 G,,,2 | !fermata!E,,,8) |] %87
V:5
 E,,8 | D,,8 | C,,8 | x8 | x8 | x8 | x8 | x8 | x8 | x8 | x8 | x4 B,,4- | B,,4 B,,4- | %13
 B,, z z2 B,,4 | B,,4 B,,2- B,, x | x8 | x8 | x8 | x8 | x8 | x8 | x8 | x8 | x8 | %24
 x2 _F,2 =F,2 ^F,2 | G,2 A,2 =A,2 _B,-B,/ z/ | x8 | x8 | _E,,8 | D,,8 | C,,8 | x8 | x8 | x8 | x8 | %35
 x8 | x8 | x8 | x8 | x4 B,,4- | B,,4 B,,4- | B,, z z2 B,,4- | B,,4 B,,2- B,, x | x8 | x8 | x8 | %46
 x8 | x8 | x8 | x8 | x8 | x8 | x2 _F,2 =F,2 ^F,2 | G,2 A,2 =A,2 _B,-B,/ z/ | x8 | x8 | _E,,8 | %57
 D,,8 | C,,8 | x8 | x8 | x8 | x8 | x8 | x8 | x8 | x8 | x4 B,,4- | B,,4 B,,4- | B,, x x2 B,,4- | %70
 B,,4 B,,2- B,, x | x8 | x8 | x8 | x8 | x8 | x8 | x8 | x8 | x8 | x2 _F,2 =F,2 ^F,2 | %81
 G,2 A,2 =A,2 _B,-B,/ x/ | x8 | x8 | x8 | x8 | x8 |] %87

